content/packs/basic_addition/pims/grid_counting/field/graphics/icons/thirty_block_icon.svg

<svg width="50" xmlns="http://www.w3.org/2000/svg" height="50" fill="none"><defs><clipPath id="a" class="frame-clip frame-clip-def"><rect rx="0" ry="0" width="50" height="50"/></clipPath></defs><g clip-path="url(#a)"><g class="fills"><rect rx="0" ry="0" width="50" height="50" class="frame-background"/></g><g class="frame-children"><g class="fills"><rect rx="0" ry="0" x="-150" y="-23" width="350" height="96" class="frame-background"/></g><g class="frame-children"><rect rx="0" ry="0" x="-143" y="-19" width="336" height="88" style="fill: rgb(204, 204, 204); fill-opacity: 1;" class="fills"/><g class="strokes"><rect rx="0" ry="0" x="-143" y="-19" width="336" height="88" style="fill: none; stroke-width: 3; stroke: rgb(0, 0, 0); stroke-opacity: 1;" class="stroke-shape"/></g><g class="fills"><rect rx="0" ry="0" x="14" y="17" width="22" height="16" class="frame-background"/></g><g class="frame-children"><g class="fills"><rect rx="0" ry="0" x="25.717" y="17" width="10.283" height="16" class="frame-background"/></g><g class="frame-children"><path d="M36 24.989c0 1.684-.178 3.12-.533 4.31-.342 1.19-.889 2.105-1.643 2.743-.754.639-1.749.958-2.987.958-1.749 0-3.043-.704-3.882-2.112-.825-1.422-1.238-3.388-1.238-5.899 0-1.669.164-3.098.491-4.288.341-1.205.889-2.119 1.643-2.743.753-.639 1.749-.958 2.986-.958 1.735 0 3.03.704 3.883 2.112.853 1.393 1.28 3.352 1.28 5.877Zm-8.021 0c0 2.032.213 3.556.64 4.572.426 1.001 1.166 1.502 2.218 1.502 1.039 0 1.778-.501 2.219-1.502.441-1.002.661-2.526.661-4.572 0-2.017-.22-3.526-.661-4.528-.441-1.016-1.18-1.524-2.219-1.524-1.052 0-1.792.508-2.218 1.524-.427 1.002-.64 2.511-.64 4.528Z" style="display: inline; font-weight: 500; font-size: 5.64444px; line-height: 1.25; font-family: &quot;Noto Sans&quot;; stroke-width: 0.264583; fill: rgb(0, 0, 0); fill-opacity: 1;" class="fills"/></g><g class="fills"><rect rx="0" ry="0" x="14" y="17.171" width="10.176" height="15.659" class="frame-background"/></g><g class="frame-children"><path d="M23.707 20.904c0 1.038-.299 1.863-.896 2.475-.583.611-1.344 1.017-2.283 1.216v.085c1.209.142 2.119.526 2.731 1.152.611.612.917 1.422.917 2.432 0 .882-.213 1.671-.64 2.368-.412.683-1.06 1.223-1.941 1.621-.868.384-1.984.576-3.35.576-.81 0-1.564-.064-2.261-.192a7.884 7.884 0 0 1-1.984-.64v-2.048a9.05 9.05 0 0 0 2.048.747c.74.171 1.444.256 2.112.256 1.294 0 2.226-.242 2.795-.725.569-.498.853-1.188.853-2.07 0-.853-.341-1.479-1.024-1.877-.683-.398-1.707-.597-3.072-.597h-1.387v-1.856h1.408c1.295 0 2.233-.242 2.816-.726.583-.483.875-1.116.875-1.898 0-.683-.228-1.209-.683-1.579-.441-.384-1.081-.576-1.92-.576-.782 0-1.465.121-2.048.363a9.12 9.12 0 0 0-1.6.874l-1.109-1.557c.555-.427 1.23-.789 2.027-1.088.81-.313 1.742-.469 2.794-.469 1.579 0 2.774.348 3.584 1.045.825.683 1.238 1.579 1.238 2.688Z" style="display: inline; font-weight: 500; font-size: 5.64444px; line-height: 1.25; font-family: &quot;Noto Sans&quot;; stroke-width: 0.264583; fill: rgb(0, 0, 0); fill-opacity: 1;" class="fills"/></g></g></g></g></g></svg>

<svg width="50" xmlns="http://www.w3.org/2000/svg" height="50" id="screenshot-15768c80-d9e4-805b-8005-5e500b2c9e72" viewBox="0 0 50 50" xmlns:xlink="http://www.w3.org/1999/xlink" fill="none" version="1.1"><g id="shape-15768c80-d9e4-805b-8005-5e500b2c9e72"><defs><clipPath id="frame-clip-15768c80-d9e4-805b-8005-5e500b2c9e72-render-31" class="frame-clip frame-clip-def"><rect rx="0" ry="0" x="0" y="0" width="50" height="50" transform="matrix(1.000000, 0.000000, 0.000000, 1.000000, 0.000000, 0.000000)"/></clipPath></defs><g class="frame-container-wrapper"><g class="frame-container-blur"><g class="frame-container-shadows"><g clip-path="url(#frame-clip-15768c80-d9e4-805b-8005-5e500b2c9e72-render-31)" fill="none"><g class="fills" id="fills-15768c80-d9e4-805b-8005-5e500b2c9e72"><rect rx="0" ry="0" x="0" y="0" width="50" height="50" transform="matrix(1.000000, 0.000000, 0.000000, 1.000000, 0.000000, 0.000000)" class="frame-background"/></g><g class="frame-children"><g id="shape-c079da11-ea97-8013-8006-2a6e18fba4bb"><g class="frame-container-wrapper"><g class="frame-container-blur"><g class="frame-container-shadows"><g fill="none"><g class="fills" id="fills-c079da11-ea97-8013-8006-2a6e18fba4bb"><rect rx="0" ry="0" x="3" y="3" width="44" height="44" transform="matrix(1.000000, 0.000000, 0.000000, 1.000000, 0.000000, 0.000000)" class="frame-background"/></g><g class="frame-children"><g id="shape-c079da11-ea97-8013-8006-2a6e18fba4bc"><g class="fills" id="fills-c079da11-ea97-8013-8006-2a6e18fba4bc"><rect rx="0" ry="0" x="3" y="3" transform="matrix(1.000000, 0.000000, 0.000000, 1.000000, 0.000000, 0.000000)" width="44" height="44" style="fill: rgb(204, 204, 204); fill-opacity: 1;"/></g><g id="strokes-18cb738f-1f02-80ab-8006-2a6e91cdfed4-c079da11-ea97-8013-8006-2a6e18fba4bc" class="strokes"><g class="stroke-shape"><rect rx="0" ry="0" x="3" y="3" transform="matrix(1.000000, 0.000000, 0.000000, 1.000000, 0.000000, 0.000000)" width="44" height="44" style="fill: none; stroke-width: 3; stroke: rgb(0, 0, 0); stroke-opacity: 1;"/></g></g></g></g></g></g></g></g></g><g id="shape-15768c80-d9e4-805b-8005-5e504f291632"><g class="frame-container-wrapper"><g class="frame-container-blur"><g class="frame-container-shadows"><g fill="none"><g class="fills" id="fills-15768c80-d9e4-805b-8005-5e504f291632"><rect rx="0" ry="0" x="14.000000000000114" y="17" width="22" height="16" transform="matrix(1.000000, 0.000000, 0.000000, 1.000000, 0.000000, 0.000000)" class="frame-background"/></g><g class="frame-children"><g id="shape-15768c80-d9e4-805b-8005-5e504f291633"><g class="frame-container-wrapper"><g class="frame-container-blur"><g class="frame-container-shadows"><g fill="none"><g class="fills" id="fills-15768c80-d9e4-805b-8005-5e504f291633"><rect rx="0" ry="0" x="25.717271158307653" y="17" width="10.28272884169246" height="16" transform="matrix(1.000000, 0.000000, 0.000000, 1.000000, 0.000000, 0.000000)" class="frame-background"/></g><g class="frame-children"><g id="shape-15768c80-d9e4-805b-8005-5e504f291634"><g class="fills" id="fills-15768c80-d9e4-805b-8005-5e504f291634"><path d="M36.000,24.989C36.000,26.673,35.822,28.109,35.467,29.299C35.125,30.489,34.578,31.404,33.824,32.042C33.070,32.681,32.075,33.000,30.837,33.000C29.088,33.000,27.794,32.296,26.955,30.888C26.130,29.466,25.717,27.500,25.717,24.989C25.717,23.320,25.881,21.891,26.208,20.701C26.549,19.496,27.097,18.582,27.851,17.958C28.604,17.319,29.600,17.000,30.837,17.000C32.572,17.000,33.867,17.704,34.720,19.112C35.573,20.505,36.000,22.464,36.000,24.989ZL36.000,24.989ZM27.979,24.989C27.979,27.021,28.192,28.545,28.619,29.561C29.045,30.562,29.785,31.063,30.837,31.063C31.876,31.063,32.615,30.562,33.056,29.561C33.497,28.559,33.717,27.035,33.717,24.989C33.717,22.972,33.497,21.463,33.056,20.461C32.615,19.445,31.876,18.937,30.837,18.937C29.785,18.937,29.045,19.445,28.619,20.461C28.192,21.463,27.979,22.972,27.979,24.989ZL27.979,24.989Z" style="display: inline; font-weight: 500; font-size: 5.64444px; line-height: 1.25; font-family: &quot;Noto Sans&quot;; stroke-width: 0.264583; fill: rgb(0, 0, 0); fill-opacity: 1;"/></g></g></g></g></g></g></g></g><g id="shape-15768c80-d9e4-805b-8005-5e504f291635"><g class="frame-container-wrapper"><g class="frame-container-blur"><g class="frame-container-shadows"><g fill="none"><g class="fills" id="fills-15768c80-d9e4-805b-8005-5e504f291635"><rect rx="0" ry="0" x="14.000000000000114" y="17.17061146101014" width="10.176062282830117" height="15.658777077979721" transform="matrix(1.000000, 0.000000, 0.000000, 1.000000, 0.000000, 0.000000)" class="frame-background"/></g><g class="frame-children"><g id="shape-15768c80-d9e4-805b-8005-5e504f291636"><g class="fills" id="fills-15768c80-d9e4-805b-8005-5e504f291636"><path d="M23.707,20.904C23.707,21.942,23.408,22.767,22.811,23.379C22.228,23.990,21.467,24.396,20.528,24.595L20.528,24.680C21.737,24.822,22.647,25.206,23.259,25.832C23.870,26.444,24.176,27.254,24.176,28.264C24.176,29.146,23.963,29.935,23.536,30.632C23.124,31.315,22.476,31.855,21.595,32.253C20.727,32.637,19.611,32.829,18.245,32.829C17.435,32.829,16.681,32.765,15.984,32.637C15.287,32.509,14.626,32.296,14.000,31.997L14.000,29.949C14.640,30.276,15.323,30.525,16.048,30.696C16.788,30.867,17.492,30.952,18.160,30.952C19.454,30.952,20.386,30.710,20.955,30.227C21.524,29.729,21.808,29.039,21.808,28.157C21.808,27.304,21.467,26.678,20.784,26.280C20.101,25.882,19.077,25.683,17.712,25.683L16.325,25.683L16.325,23.827L17.733,23.827C19.028,23.827,19.966,23.585,20.549,23.101C21.132,22.618,21.424,21.985,21.424,21.203C21.424,20.520,21.196,19.994,20.741,19.624C20.300,19.240,19.660,19.048,18.821,19.048C18.039,19.048,17.356,19.169,16.773,19.411C16.204,19.652,15.671,19.944,15.173,20.285L14.064,18.728C14.619,18.301,15.294,17.939,16.091,17.640C16.901,17.327,17.833,17.171,18.885,17.171C20.464,17.171,21.659,17.519,22.469,18.216C23.294,18.899,23.707,19.795,23.707,20.904ZZ" style="display: inline; font-weight: 500; font-size: 5.64444px; line-height: 1.25; font-family: &quot;Noto Sans&quot;; stroke-width: 0.264583; fill: rgb(0, 0, 0); fill-opacity: 1;"/></g></g></g></g></g></g></g></g></g></g></g></g></g></g></g></g></g></g></g></g></svg>
